src/distro-icons/macos.svg

<svg width="512" height="512" fill="none" xmlns="http://www.w3.org/2000/svg">
<circle cx="256" cy="256" r="256" fill="#fff"/>
<path d="M281.797 169.861v-4.22l-13.114.901c-3.714.234-6.502 1.024-8.377 2.356-1.876 1.345-2.813 3.208-2.813 5.589 0 2.32.925 4.17 2.788 5.54 1.851 1.381 4.343 2.06 7.452 2.06 1.986 0 3.849-.308 5.564-.913 1.715-.605 3.22-1.456 4.478-2.542a11.378 11.378 0 0 0 2.949-3.849c.716-1.493 1.073-3.133 1.073-4.922ZM256 0C113.146 0 0 113.146 0 256c0 142.866 113.146 256 256 256 142.854 0 256-113.134 256-256C512 113.146 398.866 0 256 0Zm49.695 151.737c1.209-3.393 2.911-6.304 5.12-8.722 2.208-2.419 4.861-4.282 7.97-5.589 3.109-1.308 6.576-1.962 10.388-1.962 3.442 0 6.551.518 9.315 1.542 2.775 1.024 5.144 2.406 7.13 4.146 1.987 1.739 3.566 3.763 4.726 6.082a20.465 20.465 0 0 1 2.085 7.353h-10.277a13.236 13.236 0 0 0-1.394-3.973 10.894 10.894 0 0 0-2.628-3.183c-1.098-.9-2.381-1.604-3.85-2.109-1.48-.519-3.133-.765-4.996-.765-2.184 0-4.17.444-5.934 1.32-1.777.876-3.294 2.122-4.553 3.726-1.258 1.604-2.233 3.565-2.924 5.86-.703 2.307-1.049 4.861-1.049 7.674 0 2.911.346 5.527 1.049 7.822.691 2.307 1.678 4.244 2.961 5.835a12.788 12.788 0 0 0 4.602 3.652c1.789.839 3.763 1.271 5.91 1.271 3.516 0 6.378-.827 8.599-2.48 2.22-1.653 3.652-4.071 4.318-7.254h10.289c-.296 2.813-1.073 5.379-2.332 7.698a19.81 19.81 0 0 1-4.885 5.934c-2.011 1.641-4.368 2.912-7.082 3.8-2.714.889-5.7 1.345-8.944 1.345-3.85 0-7.317-.641-10.438-1.912-3.109-1.271-5.786-3.109-8.007-5.49-2.221-2.381-3.935-5.281-5.144-8.698-1.21-3.418-1.814-7.255-1.814-11.536-.025-4.182.58-7.982 1.789-11.387Zm-146.235-15.57h10.29v9.142h.197a15.219 15.219 0 0 1 2.467-4.071 15.425 15.425 0 0 1 3.504-3.06c1.32-.851 2.788-1.493 4.368-1.937a18.62 18.62 0 0 1 5.021-.666c3.775 0 6.971.901 9.561 2.702 2.604 1.801 4.454 4.392 5.54 7.773h.259a16.181 16.181 0 0 1 2.727-4.368 17.463 17.463 0 0 1 3.873-3.306c1.456-.913 3.06-1.604 4.8-2.085 1.739-.481 3.565-.716 5.49-.716 2.652 0 5.058.42 7.229 1.271 2.172.851 4.022 2.036 5.565 3.578 1.542 1.542 2.726 3.417 3.553 5.613.826 2.196 1.246 4.639 1.246 7.329v36.777h-10.734v-34.199c0-3.541-.913-6.292-2.739-8.229-1.813-1.937-4.416-2.912-7.797-2.912-1.653 0-3.17.297-4.552.876-1.37.58-2.566 1.395-3.553 2.443-1 1.037-1.777 2.295-2.332 3.751-.568 1.456-.851 3.047-.851 4.774v33.496h-10.586v-35.087c0-1.555-.247-2.961-.728-4.22-.481-1.258-1.159-2.331-2.06-3.232-.888-.901-1.986-1.579-3.257-2.06-1.283-.481-2.714-.728-4.306-.728-1.653 0-3.183.308-4.602.925a10.861 10.861 0 0 0-3.627 2.554 11.612 11.612 0 0 0-2.356 3.874c-.543 1.48-1.431 3.109-1.431 4.861v33.101H159.46v-53.964Zm23.355 258.332c-47.191 0-76.788-32.793-76.788-85.128s29.597-85.238 76.788-85.238c47.19 0 76.676 32.903 76.676 85.238 0 52.323-29.486 85.128-76.676 85.128Zm87.373-204.491c-1.74.444-3.516.666-5.342.666-2.69 0-5.145-.383-7.378-1.148-2.245-.765-4.158-1.838-5.761-3.232a14.486 14.486 0 0 1-3.751-5.046c-.901-1.974-1.345-4.17-1.345-6.588 0-4.738 1.765-8.439 5.293-11.104 3.528-2.665 8.636-4.219 15.335-4.651l14.558-.839v-4.17c0-3.109-.987-5.49-2.961-7.106-1.974-1.616-4.762-2.431-8.377-2.431-1.455 0-2.825.185-4.083.543-1.259.37-2.369.888-3.331 1.567a8.945 8.945 0 0 0-2.381 2.443 8.713 8.713 0 0 0-1.296 3.158h-10.092c.062-2.381.654-4.589 1.764-6.613 1.111-2.023 2.616-3.775 4.528-5.268 1.912-1.493 4.146-2.652 6.736-3.479 2.591-.826 5.404-1.246 8.451-1.246 3.282 0 6.255.407 8.92 1.246s4.948 2.011 6.835 3.553c1.888 1.542 3.344 3.393 4.368 5.564 1.024 2.172 1.542 4.602 1.542 7.279v37.025h-10.277v-8.994h-.259a16.19 16.19 0 0 1-2.9 3.948 18.593 18.593 0 0 1-3.972 3.01 20.02 20.02 0 0 1-4.824 1.913Zm67.892 204.491c-35.988 0-60.453-18.851-62.155-48.449h23.428c1.826 16.915 18.173 28.117 40.566 28.117 21.479 0 36.913-11.202 36.913-26.513 0-13.25-9.376-21.257-31.078-26.735l-21.146-5.256c-30.399-7.538-44.217-21.368-44.217-44.106 0-27.993 24.453-47.424 59.306-47.424 34.051 0 57.812 19.542 58.725 47.646h-23.194c-1.604-16.914-15.422-27.314-36-27.314-20.456 0-34.619 10.511-34.619 25.711 0 11.992 8.908 19.085 30.621 24.563l17.828 4.454c33.94 8.229 47.881 21.603 47.881 45.599-.012 30.621-24.23 49.707-62.859 49.707ZM182.815 245.143c-32.336 0-52.557 24.798-52.557 64.216 0 39.307 20.221 64.105 52.557 64.105 32.225 0 52.557-24.798 52.557-64.105.012-39.418-20.332-64.216-52.557-64.216Z" fill="#000"/>
</svg>

<svg width="512" height="512" viewBox="0 0 512 512" fill="none" xmlns="http://www.w3.org/2000/svg">
<circle cx="256" cy="256" r="256" fill="white"/>
<path d="M281.797 169.861V165.641L268.683 166.542C264.969 166.776 262.181 167.566 260.306 168.898C258.43 170.243 257.493 172.106 257.493 174.487C257.493 176.807 258.418 178.657 260.281 180.027C262.132 181.408 264.624 182.087 267.733 182.087C269.719 182.087 271.582 181.779 273.297 181.174C275.012 180.569 276.517 179.718 277.775 178.632C279.034 177.559 280.021 176.276 280.724 174.783C281.44 173.29 281.797 171.65 281.797 169.861ZM256 0C113.146 0 0 113.146 0 256C0 398.866 113.146 512 256 512C398.854 512 512 398.866 512 256C512 113.146 398.866 0 256 0ZM305.695 151.737C306.904 148.344 308.606 145.433 310.815 143.015C313.023 140.596 315.676 138.733 318.785 137.426C321.894 136.118 325.361 135.464 329.173 135.464C332.615 135.464 335.724 135.982 338.488 137.006C341.263 138.03 343.632 139.412 345.618 141.152C347.605 142.891 349.184 144.915 350.344 147.234C351.503 149.553 352.194 152.008 352.429 154.587H342.152C341.893 153.168 341.424 151.836 340.758 150.614C340.091 149.393 339.215 148.332 338.13 147.431C337.032 146.531 335.749 145.827 334.28 145.322C332.8 144.803 331.147 144.557 329.284 144.557C327.1 144.557 325.114 145.001 323.35 145.877C321.573 146.753 320.056 147.999 318.797 149.603C317.539 151.207 316.564 153.168 315.873 155.463C315.17 157.77 314.824 160.324 314.824 163.137C314.824 166.048 315.17 168.664 315.873 170.959C316.564 173.266 317.551 175.203 318.834 176.794C320.105 178.386 321.647 179.607 323.436 180.446C325.225 181.285 327.199 181.717 329.346 181.717C332.862 181.717 335.724 180.89 337.945 179.237C340.165 177.584 341.597 175.166 342.263 171.983H352.552C352.256 174.796 351.479 177.362 350.22 179.681C348.962 182.001 347.333 183.975 345.335 185.615C343.324 187.256 340.967 188.527 338.253 189.415C335.539 190.304 332.553 190.76 329.309 190.76C325.459 190.76 321.992 190.119 318.871 188.848C315.762 187.577 313.085 185.739 310.864 183.358C308.643 180.977 306.929 178.077 305.72 174.66C304.51 171.242 303.906 167.405 303.906 163.124C303.881 158.942 304.486 155.142 305.695 151.737ZM159.46 136.167H169.75V145.309H169.947C170.576 143.792 171.403 142.422 172.414 141.238C173.426 140.041 174.586 139.03 175.918 138.178C177.238 137.327 178.706 136.685 180.286 136.241C181.877 135.797 183.555 135.575 185.307 135.575C189.082 135.575 192.278 136.476 194.868 138.277C197.472 140.078 199.322 142.669 200.408 146.05H200.667C201.358 144.421 202.271 142.965 203.394 141.682C204.516 140.399 205.812 139.289 207.267 138.376C208.723 137.463 210.327 136.772 212.067 136.291C213.806 135.81 215.632 135.575 217.557 135.575C220.209 135.575 222.615 135.995 224.786 136.846C226.958 137.697 228.808 138.882 230.351 140.424C231.893 141.966 233.077 143.841 233.904 146.037C234.73 148.233 235.15 150.676 235.15 153.366V190.143H224.416V155.944C224.416 152.403 223.503 149.652 221.677 147.715C219.864 145.778 217.261 144.803 213.88 144.803C212.227 144.803 210.71 145.1 209.328 145.679C207.958 146.259 206.762 147.074 205.775 148.122C204.775 149.159 203.998 150.417 203.443 151.873C202.875 153.329 202.592 154.92 202.592 156.647V190.143H192.006V155.056C192.006 153.501 191.759 152.095 191.278 150.836C190.797 149.578 190.119 148.505 189.218 147.604C188.33 146.703 187.232 146.025 185.961 145.544C184.678 145.063 183.247 144.816 181.655 144.816C180.002 144.816 178.472 145.124 177.053 145.741C175.647 146.358 174.438 147.209 173.426 148.295C172.414 149.393 171.625 150.676 171.07 152.169C170.527 153.649 169.639 155.278 169.639 157.03V190.131H159.46V136.167ZM182.815 394.499C135.624 394.499 106.027 361.706 106.027 309.371C106.027 257.036 135.624 224.133 182.815 224.133C230.005 224.133 259.491 257.036 259.491 309.371C259.491 361.694 230.005 394.499 182.815 394.499ZM270.188 190.008C268.448 190.452 266.672 190.674 264.846 190.674C262.156 190.674 259.701 190.291 257.468 189.526C255.223 188.761 253.31 187.688 251.707 186.294C250.103 184.9 248.844 183.222 247.956 181.248C247.055 179.274 246.611 177.078 246.611 174.66C246.611 169.922 248.376 166.221 251.904 163.556C255.432 160.891 260.54 159.337 267.239 158.905L281.797 158.066V153.896C281.797 150.787 280.81 148.406 278.836 146.79C276.862 145.174 274.074 144.359 270.459 144.359C269.004 144.359 267.634 144.544 266.376 144.902C265.117 145.272 264.007 145.79 263.045 146.469C262.082 147.148 261.28 147.962 260.664 148.912C260.034 149.849 259.603 150.91 259.368 152.07H249.276C249.338 149.689 249.93 147.481 251.04 145.457C252.151 143.434 253.656 141.682 255.568 140.189C257.48 138.696 259.714 137.537 262.304 136.71C264.895 135.884 267.708 135.464 270.755 135.464C274.037 135.464 277.01 135.871 279.675 136.71C282.34 137.549 284.623 138.721 286.51 140.263C288.398 141.805 289.854 143.656 290.878 145.827C291.902 147.999 292.42 150.429 292.42 153.106V190.131H282.143V181.137H281.884C281.119 182.593 280.157 183.913 278.984 185.085C277.8 186.257 276.48 187.269 275.012 188.095C273.531 188.922 271.927 189.563 270.188 190.008ZM338.08 394.499C302.092 394.499 277.627 375.648 275.925 346.05H299.353C301.179 362.965 317.526 374.167 339.919 374.167C361.398 374.167 376.832 362.965 376.832 347.654C376.832 334.404 367.456 326.397 345.754 320.919L324.608 315.663C294.209 308.125 280.391 294.295 280.391 271.557C280.391 243.564 304.844 224.133 339.697 224.133C373.748 224.133 397.509 243.675 398.422 271.779H375.228C373.624 254.865 359.806 244.465 339.228 244.465C318.772 244.465 304.609 254.976 304.609 270.176C304.609 282.168 313.517 289.261 335.23 294.739L353.058 299.193C386.998 307.422 400.939 320.796 400.939 344.792C400.927 375.413 376.709 394.499 338.08 394.499ZM182.815 245.143C150.479 245.143 130.258 269.941 130.258 309.359C130.258 348.666 150.479 373.464 182.815 373.464C215.04 373.464 235.372 348.666 235.372 309.359C235.384 269.941 215.04 245.143 182.815 245.143Z" fill="black"/>
</svg>
